Numix-GalliumOS/64/actions/geany-save-all.svg

<?xml version="1.0" encoding="UTF-8" standalone="no"?>
<svg
   xmlns:dc="http://purl.org/dc/elements/1.1/"
   xmlns:cc="http://creativecommons.org/ns#"
   xmlns:rdf="http://www.w3.org/1999/02/22-rdf-syntax-ns#"
   xmlns:svg="http://www.w3.org/2000/svg"
   xmlns="http://www.w3.org/2000/svg"
   xmlns:sodipodi="http://sodipodi.sourceforge.net/DTD/sodipodi-0.dtd"
   xmlns:inkscape="http://www.inkscape.org/namespaces/inkscape"
   width="64"
   height="64"
   viewBox="0 0 64 64"
   id="svg2"
   version="1.1"
   inkscape:version="0.91 r"
   sodipodi:docname="geany-save-all.svg">
  <metadata
     id="metadata16">
    <rdf:RDF>
      <cc:Work
         rdf:about="">
        <dc:format>image/svg+xml</dc:format>
        <dc:type
           rdf:resource="http://purl.org/dc/dcmitype/StillImage" />
        <dc:title></dc:title>
      </cc:Work>
    </rdf:RDF>
  </metadata>
  <defs
     id="defs14" />
  <sodipodi:namedview
     pagecolor="#ffffff"
     bordercolor="#666666"
     borderopacity="1"
     objecttolerance="10"
     gridtolerance="10"
     guidetolerance="10"
     inkscape:pageopacity="0"
     inkscape:pageshadow="2"
     inkscape:window-width="1366"
     inkscape:window-height="747"
     id="namedview12"
     showgrid="true"
     inkscape:zoom="3.6875"
     inkscape:cx="-16.597961"
     inkscape:cy="26.015114"
     inkscape:window-x="0"
     inkscape:window-y="21"
     inkscape:window-maximized="1"
     inkscape:current-layer="svg2">
    <inkscape:grid
       type="xygrid"
       id="grid4138" />
  </sodipodi:namedview>
  <path
     inkscape:connector-curvature="0"
     style="fill:#268bd2;fill-rule:evenodd"
     d="M 16.445312,0 47.554688,0 C 56.890625,0 60,3.199219 60,12.800781 l 0,38.398438 C 60,60.800781 56.890625,64 47.554688,64 L 16.445312,64 C 7.109375,64 4,60.800781 4,51.199219 L 4,12.800781 C 4,3.199219 7.109375,0 16.445312,0 Z"
     id="path4139" />
  <path
     id="path4143"
     d="M 16.445312,0 47.554688,0 C 56.890625,0 60,3.199219 60,12.800781 l 0,25.597657 C 60,48 56.890625,51.199219 47.554688,51.199219 l -31.109376,0 C 7.109375,51.199219 4,48 4,38.398438 L 4,12.800781 C 4,3.199219 7.109375,0 16.445312,0 Z"
     style="fill:#ffffff;fill-opacity:0.30199998;fill-rule:evenodd"
     inkscape:connector-curvature="0" />
  <path
     inkscape:connector-curvature="0"
     id="path10"
     d="M 32,31.999778 21,45 10,31.999778 l 6,0 L 16,20 l 10,0 0,11.999778 z"
     style="fill:#ffffff;fill-opacity:0.9020004"
     sodipodi:nodetypes="cccccccc" />
  <path
     inkscape:connector-curvature="0"
     id="path10-3"
     d="M 54,18.000694 43,31 32,18.000694 l 6,0 0,-11.9997782 10,0 0,11.9997782 z"
     style="fill:#ffffff;fill-opacity:0.9020004"
     sodipodi:nodetypes="cccccccc" />
</svg>

<svg xmlns="http://www.w3.org/2000/svg" viewBox="0 0 64 64">
 <path d="m 16.445 0 31.11 0 c 9.336 0 12.445 3.199 12.445 12.801 l 0 38.4 c 0 9.602 -3.109 12.801 -12.445 12.801 l -31.11 0 c -9.336 0 -12.445 -3.199 -12.445 -12.801 l 0 -38.4 c 0 -9.602 3.109 -12.801 12.445 -12.801" style="fill:#268bd2;fill-rule:evenodd"/>
 <path d="m 16.445 0 31.11 0 c 9.336 0 12.445 3.199 12.445 12.801 l 0 25.598 c 0 9.602 -3.109 12.602 -12.445 12.602 l -31.11 0 c -9.336 0 -12.445 -3 -12.445 -12.602 l 0 -25.598 c 0 -9.602 3.109 -12.801 12.445 -12.801" style="fill:#fff;fill-opacity:0.302;fill-rule:evenodd"/>
 <path d="m 32 32 -11 13 -11 -13 l 6 0 l 0 -12 l 10 0 0 12 z" style="fill:#fff;fill-opacity:0.902"/>
 <path d="m 54 18 -11 12.999 -11 -12.999 l 6 0 0 -12 10 0 0 12 z" style="fill:#fff;fill-opacity:0.902"/>
</svg>
